Educa/src/img/logo.svg

<svg width="100" height="42" viewBox="0 0 100 42" fill="none" xmlns="http://www.w3.org/2000/svg">
<path d="M3.976 41.2101C3.37867 41.2101 2.828 41.1074 2.324 40.9021C1.82933 40.6874 1.40467 40.3888 1.05 40.0061C0.704665 39.6141 0.466665 39.1474 0.335999 38.6061L2.282 38.1861C2.40333 38.5688 2.61333 38.8674 2.912 39.0821C3.22 39.2968 3.584 39.4041 4.004 39.4041C4.30267 39.4041 4.564 39.3528 4.788 39.2501C5.02133 39.1381 5.19867 38.9888 5.32 38.8021C5.45067 38.6154 5.516 38.4008 5.516 38.1581C5.516 37.8501 5.39933 37.6028 5.166 37.4161C4.93267 37.2201 4.55467 37.0614 4.032 36.9401L3.584 36.8421C2.55733 36.6181 1.80133 36.2588 1.316 35.7641C0.830665 35.2601 0.587999 34.6488 0.587999 33.9301C0.587999 33.4821 0.676665 33.0714 0.853999 32.6981C1.03133 32.3248 1.274 32.0028 1.582 31.7321C1.89933 31.4521 2.268 31.2374 2.688 31.0881C3.108 30.9294 3.56067 30.8501 4.046 30.8501C4.59667 30.8501 5.11 30.9528 5.586 31.1581C6.062 31.3634 6.46333 31.6574 6.79 32.0401C7.11667 32.4228 7.336 32.8754 7.448 33.3981L5.53 33.8181C5.418 33.4448 5.222 33.1601 4.942 32.9641C4.67133 32.7588 4.354 32.6561 3.99 32.6561C3.738 32.6561 3.50933 32.7074 3.304 32.8101C3.108 32.9034 2.94933 33.0388 2.828 33.2161C2.716 33.3841 2.66 33.5754 2.66 33.7901C2.66 34.1168 2.786 34.3688 3.038 34.5461C3.29 34.7141 3.66333 34.8541 4.158 34.9661L4.606 35.0641C5.62333 35.2881 6.37467 35.6428 6.86 36.1281C7.35467 36.6134 7.602 37.2341 7.602 37.9901C7.602 38.4661 7.50867 38.9001 7.322 39.2921C7.14467 39.6841 6.89267 40.0248 6.566 40.3141C6.23933 40.6034 5.85667 40.8274 5.418 40.9861C4.97933 41.1354 4.49867 41.2101 3.976 41.2101Z" fill="#00D9FF"/>
<path d="M11.2353 41.0001V32.9081H8.43533V31.0601H16.1213V32.9081H13.3213V41.0001H11.2353Z" fill="#00D9FF"/>
<path d="M21.7334 41.2801C21.08 41.2801 20.492 41.1821 19.9694 40.9861C19.4467 40.7808 18.9987 40.4914 18.6254 40.1181C18.252 39.7354 17.9627 39.2828 17.7574 38.7601C17.5614 38.2281 17.4634 37.6354 17.4634 36.9821V31.0601H19.5494V36.8841C19.5494 37.3881 19.638 37.8268 19.8154 38.2001C19.9927 38.5734 20.2447 38.8628 20.5714 39.0681C20.9074 39.2641 21.2994 39.3621 21.7474 39.3621C22.1954 39.3621 22.5827 39.2641 22.9094 39.0681C23.236 38.8628 23.488 38.5734 23.6654 38.2001C23.852 37.8268 23.9454 37.3881 23.9454 36.8841V31.0601H26.0314V36.9821C26.0314 37.6354 25.9287 38.2281 25.7234 38.7601C25.5274 39.2828 25.238 39.7354 24.8554 40.1181C24.482 40.4914 24.0294 40.7808 23.4974 40.9861C22.9747 41.1821 22.3867 41.2801 21.7334 41.2801Z" fill="#00D9FF"/>
<path d="M27.7069 41.0001V31.0601H31.5709C32.3549 31.0601 33.0689 31.1814 33.7129 31.4241C34.3569 31.6574 34.9122 31.9934 35.3789 32.4321C35.8455 32.8708 36.2049 33.3934 36.4569 34.0001C36.7089 34.6068 36.8349 35.2788 36.8349 36.0161C36.8349 36.7534 36.7042 37.4301 36.4429 38.0461C36.1909 38.6528 35.8315 39.1801 35.3649 39.6281C34.8982 40.0668 34.3382 40.4074 33.6849 40.6501C33.0409 40.8834 32.3269 41.0001 31.5429 41.0001H27.7069ZM29.7929 39.1521H31.4449C32.1075 39.1521 32.6815 39.0261 33.1669 38.7741C33.6522 38.5221 34.0255 38.1628 34.2869 37.6961C34.5482 37.2294 34.6789 36.6741 34.6789 36.0301C34.6789 35.3861 34.5482 34.8308 34.2869 34.3641C34.0255 33.8974 33.6522 33.5381 33.1669 33.2861C32.6815 33.0341 32.1075 32.9081 31.4449 32.9081H29.7929V39.1521Z" fill="#00D9FF"/>
<path d="M40.3076 41.0001V37.1361L36.8356 31.0601H39.1596L41.3856 35.2461L43.5976 31.0601H45.8656L42.3936 37.1361V41.0001H40.3076Z" fill="#00D9FF"/>
<path d="M44.8217 41.0001L48.7697 31.0601H50.9817L54.9437 41.0001H52.8017L51.9897 38.8161H47.6917L46.8797 41.0001H44.8217ZM48.3497 37.0521H51.3317L49.8337 33.0901L48.3497 37.0521Z" fill="#00D9FF"/>
<path d="M57.2474 41.0561C57.0141 41.0561 56.8041 41.0001 56.6174 40.8881C56.4401 40.7761 56.2954 40.6268 56.1834 40.4401C56.0714 40.2534 56.0154 40.0481 56.0154 39.8241C56.0154 39.6001 56.0714 39.3948 56.1834 39.2081C56.2954 39.0214 56.4401 38.8721 56.6174 38.7601C56.8041 38.6481 57.0141 38.5921 57.2474 38.5921C57.4808 38.5921 57.6861 38.6481 57.8634 38.7601C58.0501 38.8721 58.1994 39.0214 58.3114 39.2081C58.4234 39.3948 58.4794 39.6001 58.4794 39.8241C58.4794 40.0481 58.4234 40.2534 58.3114 40.4401C58.1994 40.6268 58.0501 40.7761 57.8634 40.8881C57.6861 41.0001 57.4808 41.0561 57.2474 41.0561Z" fill="#00D9FF"/>
<path d="M1.67999 21.0001V1.12006H14.532V5.18006H6.43999V8.82006H13.58V12.8801H6.43999V16.9401H14.812V21.0001H1.67999Z" fill="#292E37"/>
<path d="M17.8948 21.0001V1.12006H26.0428C27.5922 1.12006 29.0108 1.36272 30.2988 1.84806C31.5868 2.31472 32.6975 2.98672 33.6308 3.86406C34.5828 4.74139 35.3108 5.78673 35.8148 7.00006C36.3375 8.21339 36.5988 9.55739 36.5988 11.0321C36.5988 12.5067 36.3375 13.8507 35.8148 15.0641C35.3108 16.2774 34.5828 17.3321 33.6308 18.2281C32.6975 19.1054 31.5775 19.7867 30.2708 20.2721C28.9828 20.7574 27.5548 21.0001 25.9868 21.0001H17.8948ZM22.7668 16.6881H25.7348C26.9295 16.6881 27.9562 16.4641 28.8148 16.0161C29.6922 15.5494 30.3642 14.8961 30.8308 14.0561C31.3162 13.2161 31.5588 12.2174 31.5588 11.0601C31.5588 9.90273 31.3162 8.90406 30.8308 8.06406C30.3642 7.22406 29.6922 6.58006 28.8148 6.13206C27.9562 5.66539 26.9295 5.43206 25.7348 5.43206H22.7668V16.6881Z" fill="#292E37"/>
<path d="M47.9837 21.5601C46.6397 21.5601 45.4263 21.3547 44.3437 20.9441C43.2797 20.5334 42.3557 19.9454 41.5717 19.1801C40.8063 18.4147 40.2183 17.5001 39.8077 16.4361C39.397 15.3534 39.1917 14.1494 39.1917 12.8241V1.12006H44.0637V12.6001C44.0637 13.5147 44.2223 14.3081 44.5397 14.9801C44.8757 15.6521 45.333 16.1747 45.9117 16.5481C46.509 16.9027 47.2183 17.0801 48.0397 17.0801C48.861 17.0801 49.561 16.9027 50.1397 16.5481C50.737 16.1747 51.1943 15.6521 51.5117 14.9801C51.8477 14.3081 52.0157 13.5147 52.0157 12.6001V1.12006H56.8877V12.8241C56.8877 14.1494 56.673 15.3534 56.2437 16.4361C55.833 17.5001 55.2357 18.4147 54.4517 19.1801C53.6863 19.9454 52.753 20.5334 51.6517 20.9441C50.5503 21.3547 49.3277 21.5601 47.9837 21.5601Z" fill="#292E37"/>
<path d="M69.5502 21.5601C68.3929 21.5601 67.3009 21.3921 66.2742 21.0561C65.2662 20.7201 64.3422 20.2441 63.5022 19.6281C62.6809 19.0121 61.9716 18.2841 61.3742 17.4441C60.7769 16.5854 60.3102 15.6334 59.9742 14.5881C59.6569 13.5241 59.4982 12.3947 59.4982 11.2001C59.4982 10.0054 59.6569 8.87606 59.9742 7.81206C60.3102 6.72939 60.7769 5.74939 61.3742 4.87206C61.9902 3.97606 62.7182 3.21073 63.5582 2.57606C64.3982 1.92272 65.3222 1.42806 66.3302 1.09206C67.3569 0.737392 68.4396 0.560059 69.5782 0.560059C70.6422 0.560059 71.6502 0.709392 72.6022 1.00806C73.5729 1.30673 74.4409 1.73606 75.2062 2.29606C75.9902 2.83739 76.6529 3.50006 77.1942 4.28406C77.7542 5.04939 78.1742 5.91739 78.4542 6.88806L73.6942 7.95206C73.2836 7.01873 72.7142 6.30006 71.9862 5.79606C71.2582 5.29206 70.4276 5.04006 69.4942 5.04006C68.7849 5.04006 68.1222 5.19872 67.5062 5.51606C66.9089 5.81473 66.3862 6.24406 65.9382 6.80406C65.4902 7.34539 65.1449 7.98939 64.9022 8.73606C64.6596 9.46406 64.5382 10.2667 64.5382 11.1441C64.5382 12.0027 64.6596 12.7961 64.9022 13.5241C65.1449 14.2521 65.4902 14.8867 65.9382 15.4281C66.3862 15.9507 66.9182 16.3614 67.5342 16.6601C68.1502 16.9401 68.8222 17.0801 69.5502 17.0801C70.5209 17.0801 71.3702 16.8374 72.0982 16.3521C72.8449 15.8481 73.4422 15.1201 73.8902 14.1681L78.6502 15.2321C78.2769 16.5387 77.6516 17.6681 76.7742 18.6201C75.9156 19.5534 74.8702 20.2814 73.6382 20.8041C72.4062 21.3081 71.0436 21.5601 69.5502 21.5601Z" fill="#292E37"/>
<path d="M79.032 21.0001L86.9 1.12006H92.08L99.948 21.0001H94.908L93.508 17.1361H85.304L83.904 21.0001H79.032ZM86.788 13.0481H92.024L89.392 5.79606L86.788 13.0481Z" fill="#292E37"/>
</svg>

<svg xmlns="http://www.w3.org/2000/svg" width="100" height="42" fill="none" xmlns:v="https://vecta.io/nano"><path d="M3.976 41.21c-.597 0-1.148-.103-1.652-.308a3.75 3.75 0 0 1-1.274-.896c-.345-.392-.583-.859-.714-1.4l1.946-.42c.121.383.331.681.63.896.308.215.672.322 1.092.322.299 0 .56-.051.784-.154a1.27 1.27 0 0 0 .532-.448c.131-.187.196-.401.196-.644 0-.308-.117-.555-.35-.742-.233-.196-.611-.355-1.134-.476l-.448-.098c-1.027-.224-1.783-.583-2.268-1.078-.485-.504-.728-1.115-.728-1.834 0-.448.089-.859.266-1.232a2.97 2.97 0 0 1 .728-.966 3.34 3.34 0 0 1 1.106-.644 3.81 3.81 0 0 1 1.358-.238 3.85 3.85 0 0 1 1.54.308 3.25 3.25 0 0 1 1.204.882 3.03 3.03 0 0 1 .658 1.358l-1.918.42c-.112-.373-.308-.658-.588-.854a1.53 1.53 0 0 0-.952-.308c-.252 0-.481.051-.686.154a1.18 1.18 0 0 0-.476.406 1.01 1.01 0 0 0-.168.574c0 .327.126.579.378.756.252.168.625.308 1.12.42l.448.098c1.017.224 1.769.579 2.254 1.064.495.485.742 1.106.742 1.862a2.99 2.99 0 0 1-.28 1.302c-.177.392-.429.733-.756 1.022s-.709.513-1.148.672a4.45 4.45 0 0 1-1.442.224zm7.259-.21v-8.092h-2.8V31.06h7.686v1.848h-2.8V41h-2.086zm10.498.28c-.653 0-1.241-.098-1.764-.294a3.88 3.88 0 0 1-1.344-.868 4.03 4.03 0 0 1-.868-1.358c-.196-.532-.294-1.125-.294-1.778V31.06h2.086v5.824c0 .504.089.943.266 1.316a2.02 2.02 0 0 0 .756.868c.336.196.728.294 1.176.294s.835-.098 1.162-.294c.327-.205.579-.495.756-.868.187-.373.28-.812.28-1.316V31.06h2.086v5.922c0 .653-.103 1.246-.308 1.778a3.76 3.76 0 0 1-.868 1.358c-.373.373-.826.663-1.358.868-.523.196-1.111.294-1.764.294zm5.974-.28v-9.94h3.864c.784 0 1.498.121 2.142.364.644.233 1.199.569 1.666 1.008s.826.961 1.078 1.568.378 1.279.378 2.016-.131 1.414-.392 2.03a4.63 4.63 0 0 1-1.078 1.582c-.467.439-1.027.779-1.68 1.022-.644.233-1.358.35-2.142.35h-3.836zm2.086-1.848h1.652c.663 0 1.237-.126 1.722-.378s.859-.611 1.12-1.078.392-1.022.392-1.666-.131-1.199-.392-1.666-.635-.826-1.12-1.078-1.059-.378-1.722-.378h-1.652v6.244zM40.308 41v-3.864l-3.472-6.076h2.324l2.226 4.186 2.212-4.186h2.268l-3.472 6.076V41h-2.086zm4.514 0l3.948-9.94h2.212L54.944 41h-2.142l-.812-2.184h-4.298L46.88 41h-2.058zm3.528-3.948h2.982l-1.498-3.962-1.484 3.962zm8.897 4.004a1.2 1.2 0 0 1-.63-.168 1.33 1.33 0 0 1-.434-.448c-.112-.187-.168-.392-.168-.616s.056-.429.168-.616a1.33 1.33 0 0 1 .434-.448 1.2 1.2 0 0 1 .63-.168 1.13 1.13 0 0 1 .616.168 1.28 1.28 0 0 1 .448.448c.112.187.168.392.168.616s-.056.429-.168.616a1.28 1.28 0 0 1-.448.448 1.13 1.13 0 0 1-.616.168z" fill="#00d9ff"/><path d="M1.68 21V1.12h12.852v4.06H6.44v3.64h7.14v4.06H6.44v4.06h8.372V21H1.68zm16.215 0V1.12h8.148c1.549 0 2.968.243 4.256.728 1.288.467 2.399 1.139 3.332 2.016.952.877 1.68 1.923 2.184 3.136.523 1.213.784 2.557.784 4.032s-.261 2.819-.784 4.032a9.08 9.08 0 0 1-2.184 3.164c-.933.877-2.053 1.559-3.36 2.044-1.288.485-2.716.728-4.284.728h-8.092zm4.872-4.312h2.968c1.195 0 2.221-.224 3.08-.672a4.86 4.86 0 0 0 2.016-1.96c.485-.84.728-1.839.728-2.996s-.243-2.156-.728-2.996a4.69 4.69 0 0 0-2.016-1.932c-.859-.467-1.885-.7-3.08-.7h-2.968v11.256zm25.217 4.872c-1.344 0-2.557-.205-3.64-.616a8.09 8.09 0 0 1-2.772-1.764c-.765-.765-1.353-1.68-1.764-2.744-.411-1.083-.616-2.287-.616-3.612V1.12h4.872V12.6c0 .915.159 1.708.476 2.38.336.672.793 1.195 1.372 1.568.597.355 1.307.532 2.128.532s1.521-.177 2.1-.532c.597-.373 1.055-.896 1.372-1.568.336-.672.504-1.465.504-2.38V1.12h4.872v11.704c0 1.325-.215 2.529-.644 3.612-.411 1.064-1.008 1.979-1.792 2.744-.765.765-1.699 1.353-2.8 1.764s-2.324.616-3.668.616zm21.566 0a10.47 10.47 0 0 1-3.276-.504c-1.008-.336-1.932-.812-2.772-1.428-.821-.616-1.531-1.344-2.128-2.184-.597-.859-1.064-1.811-1.4-2.856-.317-1.064-.476-2.193-.476-3.388s.159-2.324.476-3.388a10.96 10.96 0 0 1 1.4-2.94 9.84 9.84 0 0 1 2.184-2.296c.84-.653 1.764-1.148 2.772-1.484C67.357.737 68.44.56 69.578.56c1.064 0 2.072.149 3.024.448.971.299 1.839.728 2.604 1.288a7.74 7.74 0 0 1 1.988 1.988 8.23 8.23 0 0 1 1.26 2.604l-4.76 1.064c-.411-.933-.98-1.652-1.708-2.156s-1.559-.756-2.492-.756c-.709 0-1.372.159-1.988.476a4.68 4.68 0 0 0-1.568 1.288c-.448.541-.793 1.185-1.036 1.932-.243.728-.364 1.531-.364 2.408 0 .859.121 1.652.364 2.38a5.86 5.86 0 0 0 1.036 1.904 4.89 4.89 0 0 0 1.596 1.232c.616.28 1.288.42 2.016.42.971 0 1.82-.243 2.548-.728.747-.504 1.344-1.232 1.792-2.184l4.76 1.064a8.27 8.27 0 0 1-1.876 3.388c-.859.933-1.904 1.661-3.136 2.184-1.232.504-2.595.756-4.088.756zm9.482-.56L86.9 1.12h5.18L99.948 21h-5.04l-1.4-3.864h-8.204L83.904 21h-4.872zm7.756-7.952h5.236l-2.632-7.252-2.604 7.252z" fill="#292e37"/></svg>
